img/balcony.svg

<svg width="40" height="40" viewBox="0 0 40 40" fill="none" xmlns="http://www.w3.org/2000/svg">
<path d="M39.2188 35.3125H38.3592V35.3124V25.9374C38.3592 25.9373 38.3592 25.9372 38.3592 25.9372H39.2188C39.6502 25.9372 40 25.5875 40 25.156C40 24.7245 39.6502 24.3747 39.2188 24.3747H34.453V0.781247C34.453 0.349764 34.1031 0 33.6717 0H6.32826C5.89685 0 5.54701 0.349764 5.54701 0.781247V24.3747H0.781247C0.349842 24.3747 0 24.7244 0 25.1559C0 25.5874 0.349842 25.9372 0.781247 25.9372H1.64077V25.9373V35.3124V35.3125H0.781247C0.349842 35.3125 0 35.6623 0 36.0938V39.2188C0 39.6502 0.349842 40 0.781247 40H39.2188C39.6502 40 40 39.6502 40 39.2188V36.0938C40 35.6623 39.6502 35.3125 39.2188 35.3125ZM36.7967 35.3125H34.453V35.3124V25.9374C34.453 25.9373 34.453 25.9372 34.453 25.9372H36.7967V25.9374V35.3125ZM7.1095 25.9372H9.45254H9.45324V25.9373V35.3124V35.3125H7.1095V35.3124V25.9374C7.1095 25.9373 7.1095 25.9372 7.1095 25.9372ZM11.0157 25.9372H13.3594V25.9373V35.3124V35.3125H11.0157V35.3124V25.9374C11.0157 25.9373 11.0157 25.9372 11.0157 25.9372ZM14.9219 25.9372H17.2656V25.9373V35.3124V35.3125H14.9219V35.3124V25.9374C14.9219 25.9373 14.9219 25.9372 14.9219 25.9372ZM18.8383 19.7481L16.3046 17.8683L17.2849 16.5471L17.6121 16.7729C17.7884 16.8945 18.007 16.9384 18.2161 16.8945C18.4256 16.8506 18.6079 16.7226 18.7204 16.5406C18.9178 16.2211 19.1883 15.9565 19.5037 15.7638C20.1942 16.5124 21.1825 16.9824 22.2789 16.9824C23.3758 16.9824 24.3647 16.5119 25.0552 15.7625C25.7459 16.1826 26.1851 16.9354 26.1851 17.7636V21.6698C26.1851 22.677 25.7875 23.6473 25.0872 24.3746H19.154V20.3755C19.154 20.1283 19.0369 19.8955 18.8383 19.7481ZM15.7149 15.4638L15.998 15.6592L15.0498 16.9373L14.1767 16.2895C14.1695 16.2842 14.1622 16.279 14.1549 16.2739C13.9422 16.127 13.8151 15.888 13.8149 15.6351V9.49449C13.8149 9.06371 14.1653 8.71325 14.5961 8.71325C15.0269 8.71325 15.3774 9.06371 15.3774 9.49449V14.8208C15.3774 15.0776 15.5035 15.318 15.7149 15.4638ZM24.4928 13.206C24.4928 14.4267 23.4997 15.4199 22.2789 15.4199C21.0581 15.4199 20.0649 14.4268 20.0649 13.206V11.7084C20.0649 10.4877 21.0581 9.49449 22.2789 9.49449C23.4997 9.49449 24.4928 10.4876 24.4928 11.7084V13.206ZM18.8281 25.9372H21.1719V25.9373V35.3124V35.3125H18.8281V35.3124V25.9374C18.8281 25.9373 18.8281 25.9372 18.8281 25.9372ZM22.7344 25.9372H25.0781V25.9373V35.3124V35.3125H22.7344V35.3124V25.9374C22.7344 25.9373 22.7344 25.9372 22.7344 25.9372ZM26.6406 25.9372H28.9843V25.9373V35.3124V35.3125H26.6406V35.3124V25.9374C26.6406 25.9373 26.6406 25.9372 26.6406 25.9372ZM30.5468 25.9372H30.5475H32.8905V25.9373V35.3124V35.3125H30.5468V35.3124V25.9374C30.5468 25.9373 30.5468 25.9372 30.5468 25.9372ZM7.1095 1.56249H32.8905V24.3747H31.3279V3.90631C31.3279 3.47483 30.9781 3.12507 30.5467 3.12507H23.5153C23.0839 3.12507 22.7341 3.47483 22.7341 3.90631C22.7341 4.3378 23.0839 4.68756 23.5153 4.68756H29.7654V24.3747H27.0254C27.493 23.5569 27.7476 22.6255 27.7476 21.6699V17.7637C27.7476 16.3773 27.0118 15.1166 25.8544 14.4189C25.984 14.0379 26.0553 13.6303 26.0553 13.206V11.7084C26.0553 9.62606 24.3612 7.932 22.2789 7.932C20.1966 7.932 18.5024 9.62606 18.5024 11.7084V13.206C18.5024 13.631 18.5741 14.0395 18.7041 14.421C18.4074 14.6006 18.1341 14.8177 17.8939 15.0691L16.9399 14.4107V9.49449C16.9399 8.20216 15.8885 7.15075 14.5961 7.15075C13.3038 7.15075 12.2524 8.20216 12.2524 9.49449V15.6358C12.2531 16.3974 12.6277 17.1124 13.2553 17.5514L17.5915 20.7687V24.3747H10.2346V4.68756H16.4841C16.9155 4.68756 17.2653 4.3378 17.2653 3.90631C17.2653 3.47483 16.9155 3.12507 16.4841 3.12507H9.45332C9.02192 3.12507 8.67208 3.47483 8.67208 3.90631V24.3747H7.1095V1.56249ZM3.20327 25.9372H5.54701V25.9373V35.3124V35.3125H3.20327V35.3124V25.9374C3.20327 25.9373 3.20327 25.9372 3.20327 25.9372ZM38.4375 38.4375H1.56249V36.875H38.4375V38.4375Z" fill="#FAFAFA"/>
<path d="M20.0001 4.68758C20.4315 4.68758 20.7814 4.33781 20.7814 3.90633C20.7814 3.47484 20.4315 3.12508 20.0001 3.12508H19.9995C19.5681 3.12508 19.2186 3.47484 19.2186 3.90633C19.2186 4.33781 19.5687 4.68758 20.0001 4.68758Z" fill="#FAFAFA"/>
</svg>

<svg width="40" height="40" fill="none"><path d="M39.219 35.313h-.86v-9.376h.86a.781.781 0 100-1.562h-4.766V.78A.781.781 0 0033.672 0H6.328a.781.781 0 00-.781.781v23.594H.781a.781.781 0 100 1.562h.86v9.375H.78a.781.781 0 00-.781.782v3.125c0 .431.35.781.781.781H39.22c.431 0 .781-.35.781-.781v-3.125a.781.781 0 00-.781-.782zm-2.422 0h-2.344v-9.376h2.344v9.375zM7.11 25.937h2.343v9.375H7.11v-9.375zm3.906 0h2.343v9.375h-2.343v-9.375zm3.906 0h2.344v9.375h-2.344v-9.375zm3.916-6.189l-2.533-1.88.98-1.32.327.225c.176.122.395.165.604.122a.781.781 0 00.504-.354c.198-.32.468-.585.784-.777a3.767 3.767 0 005.551-.002c.69.42 1.13 1.173 1.13 2.002v3.906a3.908 3.908 0 01-1.098 2.705h-5.933v-4a.781.781 0 00-.316-.627zm-3.123-4.284l.283.195-.948 1.278-.873-.648a.78.78 0 01-.362-.654v-6.14a.782.782 0 011.562 0v5.326c0 .257.127.497.338.643zm8.778-2.258c0 1.22-.993 2.214-2.214 2.214a2.216 2.216 0 01-2.214-2.214v-1.498c0-1.22.993-2.214 2.214-2.214 1.22 0 2.214.994 2.214 2.214v1.498zm-5.665 12.731h2.344v9.375h-2.344v-9.375zm3.906 0h2.344v9.375h-2.344v-9.375zm3.907 0h2.343v9.375h-2.343v-9.375zm3.906 0h2.344v9.375h-2.344v-9.375zM7.109 1.562h25.782v22.813h-1.563V3.906a.781.781 0 00-.781-.78h-7.032a.781.781 0 000 1.562h6.25v19.687h-2.74c.468-.818.723-1.75.723-2.705v-3.906a3.91 3.91 0 00-1.894-3.345c.13-.381.201-.789.201-1.213v-1.498a3.78 3.78 0 00-3.776-3.776 3.78 3.78 0 00-3.777 3.776v1.498c0 .425.072.834.202 1.215-.297.18-.57.397-.81.648l-.954-.658V9.494a2.346 2.346 0 00-2.344-2.343 2.346 2.346 0 00-2.344 2.343v6.142c.001.761.376 1.476 1.003 1.915l4.336 3.218v3.606h-7.356V4.688h6.25a.781.781 0 000-1.563H9.452a.781.781 0 00-.78.781v20.469H7.108V1.562zM3.204 25.937h2.344v9.375H3.203v-9.375zm35.234 12.5H1.563v-1.562h36.876v1.563z" fill="#FAFAFA"/><path d="M20 4.688a.781.781 0 000-1.563.781.781 0 100 1.563z" fill="#FAFAFA"/></svg>
